X: 1
T: Kingdom Coming
P: piffero primo a0741
O: Henry C. Work
%R: march, reel
F: http://ancients.sudburymuster.org/mus/sng/pdf/kingdomcmgC0.pdf
Z: 2020 John Chambers <jc:trillian.mit.edu>
M: 2/4
L: 1/16
K: D
(FE) |\
D2F2 F2A2 | A2f2 "^>"fedB | A2d2 d2F2 |E6 (FE) |\
D2F2 F2A2 | A2f2 "^>"fedB | A2d2 e3d | d6 |]
A2 |\
B3B B2d2 | A3B AGFG | A2F2 d2F2 | E6 (FE) |\
D2F2 F2A2 | A2f2 "^>"fedB | A2d2 e3d | d6 |]
|: A2 |\
B3c d3c | d6 B2 | A3B A3F | A6 A2 |\
"^>"D2FF "^>"F2AA | "^>"A2"^>"f2 "^>"fedB | A2d2 "^>"e3d | d6 :|
